src/img/up.svg

<svg width="32" height="32" viewBox="0 0 32 32" fill="none" xmlns="http://www.w3.org/2000/svg">
    <path d="M16.036 12.1859L10.1919 17.903C9.93603 18.1539 9.93603 18.5604 10.1919 18.8119C10.4478 19.0627 10.8634 19.0627 11.1193 18.8119L16.4997 13.5481L21.8801 18.8112C22.136 19.0621 22.5516 19.0621 22.8081 18.8112C23.064 18.5604 23.064 18.1533 22.8081 17.9024L16.964 12.1852C16.7107 11.9382 16.2886 11.9382 16.036 12.1859Z" fill="white" fill-opacity="0.5"/>
    <path d="M9.91218 17.6171L9.91187 17.6174C9.49584 18.0253 9.49636 18.6891 9.91151 19.0971L9.91151 19.0971L9.91187 19.0975C10.3232 19.5008 10.9876 19.5008 11.3991 19.0977C11.3991 19.0976 11.3992 19.0975 11.3993 19.0975L16.4997 14.1077L21.6001 19.0968C22.0117 19.5004 22.676 19.4999 23.0878 19.0972L23.0881 19.0968C23.504 18.6891 23.504 18.0245 23.0881 17.6168L23.0878 17.6165L17.2437 11.8993L17.2433 11.8989C16.8349 11.5005 16.1645 11.4999 15.7562 11.9001C15.7561 11.9001 15.756 11.9002 15.756 11.9003L9.91218 17.6171Z" stroke="white" stroke-opacity="0.5" stroke-width="0.8"/>
    <circle cx="16" cy="16" r="15" stroke="white" stroke-opacity="0.5" stroke-width="2"/>
    </svg>

<?xml version="1.0" encoding="utf-8"?>
<!-- Generator: Adobe Illustrator 24.2.1, SVG Export Plug-In . SVG Version: 6.00 Build 0)  -->
<svg version="1.1" id="Layer_1" xmlns="http://www.w3.org/2000/svg" xmlns:xlink="http://www.w3.org/1999/xlink" x="0px" y="0px"
	 viewBox="0 0 32 32" style="enable-background:new 0 0 32 32;" xml:space="preserve">
<path style="fill:#FFFFFF;fill-opacity:0.5;" d="M16,12.2l-5.8,5.7c-0.3,0.3-0.3,0.7,0,0.9c0.3,0.3,0.7,0.3,0.9,0l5.4-5.3l5.4,5.3
	c0.3,0.3,0.7,0.3,0.9,0c0.3-0.3,0.3-0.7,0-0.9L17,12.2C16.7,11.9,16.3,11.9,16,12.2z"/>
<path style="fill:#8DD252;stroke:#8DD252;stroke-width:0.8;stroke-opacity:0.5;" d="M9.9,17.6L9.9,17.6c-0.4,0.4-0.4,1.1,0,1.5l0,0
	l0,0c0.4,0.4,1.1,0.4,1.5,0c0,0,0,0,0,0l5.1-5l5.1,5c0.4,0.4,1.1,0.4,1.5,0l0,0c0.4-0.4,0.4-1.1,0-1.5l0,0l-5.8-5.7l0,0
	c-0.4-0.4-1.1-0.4-1.5,0c0,0,0,0,0,0L9.9,17.6z"/>
<circle style="fill:none;stroke:#8DD252;stroke-width:2;stroke-opacity:0.5;" cx="16" cy="16" r="15"/>
</svg>
